packages/katcn/src/icons/svg/eraser-solid.svg

<svg width="24" height="25" viewBox="0 0 24 25" fill="none" xmlns="http://www.w3.org/2000/svg">
<path d="M21.7 20.968H13.2L17.2 17.168L16.5 16.468L15.8 15.768L9.6 9.86802L9 9.26802L8.9 9.16802L8.2 8.46802L2.1 14.368C1.4 15.068 1 15.968 1 16.868C1 17.868 1.4 18.768 2.1 19.368L5 22.268C5.5 22.668 6.1 22.968 6.8 22.968H21.8C22.3 22.968 22.8 22.468 22.8 21.968C22.8 21.468 22.3 20.968 21.7 20.968Z" fill="black"/>
<path d="M10.3 7.76802L11 8.46802L17.1 14.368L17.8 15.068L18.5 15.768L21.6 12.768C22.3 12.068 22.7 11.168 22.7 10.268C22.7 9.26802 22.3 8.36802 21.6 7.66802L18 4.06802C16.6 2.66802 14.2 2.66802 12.8 4.06802L9.60001 7.06802L10.3 7.76802Z" fill="black"/>
</svg>

<svg xmlns="http://www.w3.org/2000/svg" fill="none" viewBox="0 0 24 25"><path fill="#000" d="M21.7 20.968h-8.5l4-3.8-.7-.7-.7-.7-6.2-5.9-.6-.6-.1-.1-.7-.7-6.1 5.9c-.7.7-1.1 1.6-1.1 2.5 0 1 .4 1.9 1.1 2.5l2.9 2.9c.5.4 1.1.7 1.8.7h15c.5 0 1-.5 1-1s-.5-1-1.1-1m-11.4-13.2.7.7 6.1 5.9.7.7.7.7 3.1-3c.7-.7 1.1-1.6 1.1-2.5 0-1-.4-1.9-1.1-2.6l-3.6-3.6c-1.4-1.4-3.8-1.4-5.2 0l-3.2 3z"/></svg>
